;FLAVOR:Marlin
;TIME:16470
;Filament used: 10.0289m
;Layer height: 0.15
;MINX:59.15
;MINY:64.895
;MINZ:0.3
;MAXX:158.742
;MAXY:164.487
;MAXZ:7.05
;Generated with Cura_SteamEngine 5.2.1
M140 S60
M105
M190 S60
M104 S200
M105
M109 S200
M82 ;absolute extrusion mode
G28 ;Home
G1 Z15.0 F2000 ;Move the platform
G92 E0
G92 E0
G1 F1500 E-6.5
;LAYER_COUNT:46
;LAYER:0
M107
M204 S1000
G0 F7500 X74.68 Y78.558 Z0.3
;TYPE:SKIRT
G1 F1500 E0
G1 X75.037 Y78.223 E0.02442
G1 X77.016 Y76.479 E0.15602
G1 X77.393 Y76.167 E0.18044
G1 X79.478 Y74.55 E0.31208
G1 X79.871 Y74.265 E0.3363
G1 X82.054 Y72.78 E0.46802
G1 X82.469 Y72.516 E0.49256
G1 X84.739 Y71.173 E0.62414
G1 X85.173 Y70.934 E0.64886
G1 X87.525 Y69.737 E0.78052
G1 X87.964 Y69.531 E0.80472
G1 X90.385 Y68.483 E0.93633
G1 X90.843 Y68.302 E0.9609
G1 X93.327 Y67.408 E1.09261
G1 X93.794 Y67.256 E1.11711
G1 X96.326 Y66.521 E1.24865
G1 X96.795 Y66.401 E1.2728
G1 X99.371 Y65.824 E1.4045
G1 X99.855 Y65.731 E1.42909
G1 X102.461 Y65.318 E1.56073
G1 X102.949 Y65.257 E1.58526
G1 X105.576 Y65.009 E1.71691
G1 X106.064 Y64.978 E1.7413
G1 X108.703 Y64.895 E1.87303
G1 X109.194 Y64.895 E1.89753
G1 X111.828 Y64.978 E2.029
G1 X112.315 Y65.009 E2.05335
G1 X114.943 Y65.257 E2.18504
G1 X115.431 Y65.318 E2.20958
G1 X118.037 Y65.731 E2.34121
G1 X118.521 Y65.824 E2.3658
G1 X121.097 Y66.401 E2.4975
G1 X121.567 Y66.521 E2.52171
G1 X124.098 Y67.256 E2.65319
G1 X124.564 Y67.408 E2.67765
G1 X127.048 Y68.302 E2.80936
G1 X127.506 Y68.483 E2.83393
G1 X129.927 Y69.531 E2.96554
G1 X130.366 Y69.737 E2.98973
G1 X132.718 Y70.934 E3.1214
G1 X133.152 Y71.173 E3.14612
G1 X135.422 Y72.516 E3.2777
G1 X135.835 Y72.778 E3.30211
G1 X138.018 Y74.262 E3.4338
G1 X138.415 Y74.55 E3.45827
G1 X140.499 Y76.167 E3.58986
G1 X140.873 Y76.477 E3.6141
G1 X142.853 Y78.221 E3.74574
G1 X143.212 Y78.559 E3.77034
G1 X145.077 Y80.424 E3.90192
G1 X145.414 Y80.782 E3.92645
G1 X147.158 Y82.761 E4.05805
G1 X147.47 Y83.138 E4.08247
G1 X149.087 Y85.223 E4.2141
G1 X149.375 Y85.619 E4.23853
G1 X150.859 Y87.803 E4.37027
G1 X151.12 Y88.215 E4.3946
G1 X152.463 Y90.485 E4.52619
G1 X152.7 Y90.917 E4.55077
G1 X153.898 Y93.269 E4.68246
G1 X154.106 Y93.71 E4.70678
G1 X155.154 Y96.131 E4.8384
G1 X155.335 Y96.588 E4.86292
G1 X156.229 Y99.071 E4.99458
G1 X156.381 Y99.539 E5.01913
G1 X157.116 Y102.071 E5.15067
G1 X157.236 Y102.539 E5.17477
G1 X157.813 Y105.114 E5.30642
G1 X157.906 Y105.602 E5.33121
G1 X158.318 Y108.208 E5.46284
G1 X158.379 Y108.69 E5.48708
G1 X158.628 Y111.318 E5.61878
G1 X158.659 Y111.809 E5.64332
G1 X158.742 Y114.445 E5.7749
G1 X158.742 Y114.935 E5.79934
G1 X158.659 Y117.572 E5.93097
G1 X158.628 Y118.063 E5.95551
G1 X158.379 Y120.691 E6.08721
G1 X158.318 Y121.173 E6.11145
G1 X157.906 Y123.779 E6.24308
G1 X157.813 Y124.266 E6.26781
G1 X157.236 Y126.842 E6.39952
G1 X157.116 Y127.311 E6.42367
G1 X156.381 Y129.843 E6.55521
G1 X156.229 Y130.311 E6.57975
G1 X155.335 Y132.794 E6.71142
G1 X155.155 Y133.25 E6.73587
G1 X154.107 Y135.672 E6.86754
G1 X153.899 Y136.113 E6.89186
G1 X152.702 Y138.464 E7.02348
G1 X152.464 Y138.898 E7.04818
G1 X151.12 Y141.169 E7.17983
G1 X150.858 Y141.58 E7.20415
G1 X149.375 Y143.762 E7.33577
G1 X149.088 Y144.158 E7.36017
G1 X147.471 Y146.243 E7.49181
G1 X147.159 Y146.62 E7.51622
G1 X145.415 Y148.599 E7.64782
G1 X145.08 Y148.956 E7.67225
G1 X143.215 Y150.822 E7.80387
G1 X142.854 Y151.161 E7.82857
G1 X140.874 Y152.905 E7.96021
G1 X140.5 Y153.215 E7.98445
G1 X138.416 Y154.832 E8.11605
G1 X138.018 Y155.121 E8.14058
G1 X135.834 Y156.605 E8.27232
G1 X135.422 Y156.866 E8.29665
G1 X133.152 Y158.209 E8.42824
G1 X132.72 Y158.446 E8.45282
G1 X130.368 Y159.644 E8.58451
G1 X129.927 Y159.852 E8.60883
G1 X127.506 Y160.9 E8.74045
G1 X127.048 Y161.081 E8.76502
G1 X124.564 Y161.975 E8.89673
G1 X124.098 Y162.127 E8.92118
G1 X121.567 Y162.862 E9.05267
G1 X121.094 Y162.983 E9.07703
G1 X118.518 Y163.559 E9.20872
G1 X118.037 Y163.651 E9.23315
G1 X115.431 Y164.064 E9.36479
G1 X114.943 Y164.125 E9.38932
G1 X112.315 Y164.373 E9.52102
G1 X111.827 Y164.404 E9.54541
G1 X109.191 Y164.487 E9.67699
G1 X108.701 Y164.487 E9.70143
G1 X106.064 Y164.404 E9.83306
G1 X105.576 Y164.373 E9.85746
G1 X102.949 Y164.125 E9.9891
G1 X102.461 Y164.064 E10.01364
G1 X99.855 Y163.651 E10.14527
G1 X99.374 Y163.559 E10.1697
G1 X96.798 Y162.983 E10.3014
G1 X96.326 Y162.862 E10.3257
G1 X93.794 Y162.127 E10.45724
G1 X93.327 Y161.975 E10.48174
G1 X90.843 Y161.081 E10.61345
G1 X90.385 Y160.9 E10.63802
G1 X87.964 Y159.852 E10.76964
G1 X87.523 Y159.644 E10.79396
G1 X85.171 Y158.446 E10.92565
G1 X84.739 Y158.209 E10.95023
G1 X82.469 Y156.866 E11.08182
G1 X82.056 Y156.604 E11.10622
G1 X79.873 Y155.12 E11.23791
G1 X79.478 Y154.833 E11.26227
G1 X77.393 Y153.216 E11.39391
G1 X77.016 Y152.904 E11.41832
G1 X75.037 Y151.16 E11.54992
G1 X74.679 Y150.823 E11.57445
G1 X72.813 Y148.957 E11.70611
G1 X72.476 Y148.599 E11.73064
G1 X70.732 Y146.62 E11.86224
G1 X70.42 Y146.243 E11.88665
G1 X68.803 Y144.158 E12.01829
G1 X68.516 Y143.762 E12.04269
G1 X67.033 Y141.58 E12.17431
G1 X66.771 Y141.169 E12.19863
G1 X65.427 Y138.898 E12.33029
G1 X65.189 Y138.464 E12.35498
G1 X63.992 Y136.113 E12.4866
G1 X63.784 Y135.672 E12.51093
G1 X62.736 Y133.25 E12.64259
G1 X62.556 Y132.794 E12.66704
G1 X61.662 Y130.311 E12.79871
G1 X61.51 Y129.843 E12.82326
G1 X60.775 Y127.311 E12.95479
G1 X60.655 Y126.842 E12.97894
G1 X60.078 Y124.266 E13.11065
G1 X59.985 Y123.779 E13.13538
G1 X59.573 Y121.173 E13.26701
G1 X59.512 Y120.691 E13.29125
G1 X59.263 Y118.063 E13.42295
G1 X59.232 Y117.57 E13.44759
G1 X59.15 Y114.935 E13.57912
G1 X59.15 Y114.45 E13.60331
G1 X59.232 Y111.813 E13.73494
G1 X59.263 Y111.319 E13.75963
G1 X59.512 Y108.691 E13.89133
G1 X59.573 Y108.209 E13.91557
G1 X59.985 Y105.603 E14.0472
G1 X60.078 Y105.116 E14.07193
G1 X60.655 Y102.54 E14.20364
G1 X60.775 Y102.07 E14.22784
G1 X61.51 Y99.539 E14.35932
G1 X61.662 Y99.073 E14.38378
G1 X62.556 Y96.589 E14.51549
G1 X62.737 Y96.131 E14.54006
G1 X63.785 Y93.71 E14.67167
G1 X63.992 Y93.27 E14.69593
G1 X65.189 Y90.919 E14.82755
G1 X65.427 Y90.485 E14.85225
G1 X66.771 Y88.214 E14.9839
G1 X67.032 Y87.804 E15.00815
G1 X68.515 Y85.621 E15.13981
G1 X68.803 Y85.224 E15.16428
G1 X70.42 Y83.139 E15.29592
G1 X70.732 Y82.762 E15.32033
G1 X72.476 Y80.783 E15.45193
G1 X72.814 Y80.423 E15.47657
G1 X74.68 Y78.558 E15.60819
G0 F7500 X74.963 Y78.841
G1 F1500 X75.301 Y78.523 E15.63134
G1 X77.28 Y76.779 E15.76295
G1 X77.638 Y76.483 E15.78612
G1 X79.723 Y74.866 E15.91776
G1 X80.096 Y74.595 E15.94076
G1 X82.279 Y73.11 E16.07248
G1 X82.673 Y72.86 E16.09576
G1 X84.943 Y71.517 E16.22735
G1 X85.355 Y71.291 E16.25079
G1 X87.707 Y70.094 E16.38246
G1 X88.123 Y69.898 E16.4054
G1 X90.544 Y68.85 E16.53701
G1 X90.978 Y68.678 E16.5603
G1 X93.462 Y67.784 E16.69201
G1 X93.905 Y67.64 E16.71525
G1 X96.437 Y66.905 E16.84679
G1 X96.883 Y66.791 E16.86976
G1 X99.459 Y66.214 E17.00146
G1 X99.918 Y66.126 E17.02477
G1 X102.524 Y65.713 E17.15641
G1 X102.987 Y65.655 E17.17969
G1 X105.614 Y65.407 E17.31133
G1 X106.076 Y65.378 E17.33443
G1 X108.715 Y65.295 E17.46615
G1 X109.181 Y65.295 E17.4894
G1 X111.815 Y65.378 E17.62088
G1 X112.277 Y65.407 E17.64397
G1 X114.905 Y65.655 E17.77567
G1 X115.368 Y65.713 E17.79895
G1 X117.974 Y66.126 E17.93058
G1 X118.433 Y66.214 E17.9539
G1 X121.009 Y66.791 E18.0856
G1 X121.456 Y66.906 E18.10863
G1 X123.987 Y67.641 E18.24012
G1 X124.429 Y67.784 E18.26329
G1 X126.913 Y68.678 E18.395
G1 X127.347 Y68.85 E18.41829
G1 X129.768 Y69.898 E18.54991
G1 X130.184 Y70.094 E18.57285
G1 X132.536 Y71.291 E18.70452
G1 X132.948 Y71.517 E18.72796
G1 X135.218 Y72.86 E18.85955
G1 X135.61 Y73.109 E18.88272
G1 X137.793 Y74.593 E19.01441
G1 X138.169 Y74.867 E19.03762
G1 X140.253 Y76.484 E19.16922
G1 X140.608 Y76.777 E19.19218
G1 X142.588 Y78.521 E19.32382
G1 X142.93 Y78.841 E19.34719
G1 X144.795 Y80.706 E19.47877
G1 X145.114 Y81.046 E19.50203
G1 X146.858 Y83.025 E19.63363
G1 X147.154 Y83.383 E19.65681
G1 X148.771 Y85.468 E19.78845
G1 X149.044 Y85.844 E19.81163
G1 X150.528 Y88.028 E19.94336
G1 X150.776 Y88.419 E19.96646
G1 X152.119 Y90.689 E20.09805
G1 X152.344 Y91.098 E20.12134
G1 X153.542 Y93.45 E20.25302
G1 X153.739 Y93.869 E20.27612
G1 X154.787 Y96.29 E20.40774
G1 X154.958 Y96.723 E20.43096
G1 X155.852 Y99.206 E20.56263
G1 X155.997 Y99.65 E20.58593
G1 X156.732 Y102.182 E20.71746
G1 X156.846 Y102.627 E20.74038
G1 X157.423 Y105.202 E20.87204
G1 X157.511 Y105.664 E20.8955
G1 X157.923 Y108.27 E21.02713
G1 X157.981 Y108.728 E21.05016
G1 X158.23 Y111.356 E21.18186
G1 X158.259 Y111.821 E21.2051
G1 X158.342 Y114.457 E21.33668
G1 X158.342 Y114.923 E21.35993
G1 X158.259 Y117.56 E21.49155
G1 X158.23 Y118.025 E21.5148
G1 X157.981 Y120.653 E21.6465
G1 X157.923 Y121.111 E21.66953
G1 X157.511 Y123.717 E21.80116
G1 X157.423 Y124.178 E21.82457
G1 X156.846 Y126.754 E21.95627
G1 X156.732 Y127.2 E21.97924
G1 X155.997 Y129.732 E22.11078
G1 X155.852 Y130.176 E22.13408
G1 X154.958 Y132.659 E22.26574
G1 X154.787 Y133.091 E22.28892
G1 X153.739 Y135.513 E22.42058
G1 X153.542 Y135.932 E22.44368
G1 X152.345 Y138.283 E22.5753
G1 X152.119 Y138.694 E22.5987
G1 X150.775 Y140.965 E22.73036
G1 X150.527 Y141.356 E22.75346
G1 X149.044 Y143.538 E22.88508
G1 X148.772 Y143.913 E22.90819
G1 X147.155 Y145.998 E23.03983
G1 X146.859 Y146.356 E23.063
G1 X145.115 Y148.335 E23.1946
G1 X144.797 Y148.673 E23.21776
G1 X142.932 Y150.539 E23.34938
G1 X142.589 Y150.861 E23.37285
G1 X140.609 Y152.605 E23.50449
G1 X140.254 Y152.898 E23.52745
G1 X138.17 Y154.515 E23.65905
G1 X137.793 Y154.79 E23.68233
G1 X135.609 Y156.274 E23.81406
G1 X135.218 Y156.522 E23.83716
G1 X132.948 Y157.865 E23.96875
G1 X132.539 Y158.09 E23.99204
G1 X130.187 Y159.288 E24.12373
G1 X129.768 Y159.485 E24.14683
G1 X127.347 Y160.533 E24.27844
G1 X126.913 Y160.705 E24.30173
G1 X124.429 Y161.599 E24.43344
G1 X123.987 Y161.742 E24.45662
G1 X121.456 Y162.477 E24.58811
G1 X121.007 Y162.593 E24.61124
G1 X118.431 Y163.169 E24.74293
G1 X117.974 Y163.256 E24.76614
G1 X115.368 Y163.669 E24.89778
G1 X114.905 Y163.727 E24.92106
G1 X112.277 Y163.975 E25.05275
G1 X111.815 Y164.004 E25.07585
G1 X109.179 Y164.087 E25.20742
G1 X108.713 Y164.087 E25.23067
G1 X106.076 Y164.004 E25.3623
G1 X105.614 Y163.975 E25.38539
G1 X102.987 Y163.727 E25.51704
G1 X102.524 Y163.669 E25.54032
G1 X99.918 Y163.256 E25.67195
G1 X99.461 Y163.169 E25.69516
G1 X96.885 Y162.593 E25.82685
G1 X96.437 Y162.478 E25.84993
G1 X93.905 Y161.743 E25.98146
G1 X93.462 Y161.599 E26.0047
G1 X90.978 Y160.705 E26.13641
G1 X90.544 Y160.533 E26.1597
G1 X88.123 Y159.485 E26.29132
G1 X87.704 Y159.288 E26.31442
G1 X85.352 Y158.09 E26.44611
G1 X84.943 Y157.865 E26.46939
G1 X82.673 Y156.522 E26.60098
G1 X82.281 Y156.273 E26.62415
G1 X80.098 Y154.789 E26.75584
G1 X79.723 Y154.517 E26.77895
G1 X77.638 Y152.9 E26.91059
G1 X77.28 Y152.604 E26.93377
G1 X75.301 Y150.86 E27.06537
G1 X74.961 Y150.541 E27.08863
G1 X73.095 Y148.675 E27.22028
G1 X72.776 Y148.335 E27.24354
G1 X71.032 Y146.356 E27.37514
G1 X70.736 Y145.998 E27.39832
G1 X69.119 Y143.913 E27.52996
G1 X68.847 Y143.538 E27.55307
G1 X67.364 Y141.356 E27.68469
G1 X67.116 Y140.965 E27.70779
G1 X65.772 Y138.694 E27.83945
G1 X65.546 Y138.283 E27.86285
G1 X64.349 Y135.932 E27.99447
G1 X64.152 Y135.513 E28.01757
G1 X63.104 Y133.091 E28.14923
G1 X62.933 Y132.659 E28.17241
G1 X62.039 Y130.176 E28.30407
G1 X61.894 Y129.732 E28.32737
G1 X61.159 Y127.2 E28.45891
G1 X61.045 Y126.754 E28.48187
G1 X60.468 Y124.178 E28.61358
G1 X60.38 Y123.717 E28.63699
G1 X59.968 Y121.111 E28.76862
G1 X59.91 Y120.653 E28.79165
G1 X59.661 Y118.025 E28.92335
G1 X59.632 Y117.557 E28.94674
G1 X59.55 Y114.922 E29.07827
G1 X59.55 Y114.462 E29.10122
G1 X59.632 Y111.825 E29.23284
G1 X59.661 Y111.357 E29.25623
G1 X59.91 Y108.729 E29.38793
G1 X59.968 Y108.271 E29.41097
G1 X60.38 Y105.665 E29.54259
G1 X60.468 Y105.204 E29.56601
G1 X61.045 Y102.628 E29.69771
G1 X61.16 Y102.181 E29.72074
G1 X61.895 Y99.65 E29.85223
G1 X62.038 Y99.208 E29.8754
G1 X62.932 Y96.724 E30.00711
G1 X63.104 Y96.29 E30.0304
G1 X64.152 Y93.869 E30.16202
G1 X64.349 Y93.451 E30.18507
G1 X65.546 Y91.1 E30.31669
G1 X65.772 Y90.689 E30.34009
G1 X67.116 Y88.418 E30.47175
G1 X67.363 Y88.029 E30.49474
G1 X68.846 Y85.846 E30.6264
G1 X69.119 Y85.469 E30.64962
G1 X70.736 Y83.384 E30.78126
G1 X71.032 Y83.026 E30.80444
G1 X72.776 Y81.047 E30.93604
G1 X73.097 Y80.706 E30.9594
G1 X74.963 Y78.841 E31.09102
G0 F7500 X75.246 Y79.124
G1 F1500 X75.566 Y78.823 E31.11294
G1 X77.545 Y77.079 E31.24454
G1 X77.883 Y76.8 E31.2664
G1 X79.968 Y75.183 E31.39804
G1 X80.321 Y74.926 E31.41983
G1 X82.504 Y73.441 E31.55155
G1 X82.877 Y73.204 E31.57359
G1 X85.147 Y71.861 E31.70518
G1 X85.536 Y71.647 E31.72733
G1 X87.888 Y70.45 E31.859
G1 X88.282 Y70.265 E31.88071
G1 X90.703 Y69.217 E32.01233
G1 X91.114 Y69.055 E32.03437
G1 X93.598 Y68.161 E32.16608
G1 X94.017 Y68.025 E32.18805
G1 X96.549 Y67.29 E32.31959
G1 X96.97 Y67.181 E32.34129
G1 X99.546 Y66.604 E32.47299
G1 X99.98 Y66.521 E32.49503
G1 X102.586 Y66.108 E32.62667
G1 X103.024 Y66.053 E32.64869
G1 X105.651 Y65.805 E32.78034
G1 X106.089 Y65.777 E32.80223
G1 X108.728 Y65.694 E32.93396
G1 X109.168 Y65.694 E32.95591
G1 X111.802 Y65.777 E33.08739
G1 X112.24 Y65.805 E33.10928
G1 X114.868 Y66.053 E33.24098
G1 X115.306 Y66.108 E33.263
G1 X117.912 Y66.521 E33.39464
G1 X118.346 Y66.604 E33.41668
G1 X120.922 Y67.181 E33.54838
G1 X121.344 Y67.29 E33.57013
G1 X123.875 Y68.025 E33.70162
G1 X124.293 Y68.161 E33.72355
G1 X126.777 Y69.055 E33.85526
G1 X127.188 Y69.217 E33.8773
G1 X129.609 Y70.265 E34.00891
G1 X130.003 Y70.45 E34.03063
G1 X132.355 Y71.647 E34.16229
G1 X132.744 Y71.861 E34.18444
G1 X135.014 Y73.204 E34.31603
G1 X135.385 Y73.44 E34.33797
G1 X137.568 Y74.924 E34.46966
G1 X137.924 Y75.183 E34.49162
G1 X140.008 Y76.8 E34.62322
G1 X140.344 Y77.077 E34.64494
G1 X142.324 Y78.821 E34.77658
G1 X142.647 Y79.124 E34.79868
G1 X144.512 Y80.989 E34.93026
G1 X144.814 Y81.311 E34.95229
G1 X146.558 Y83.29 E35.08389
G1 X146.837 Y83.628 E35.10575
G1 X148.454 Y85.713 E35.23739
G1 X148.713 Y86.069 E35.25936
G1 X150.197 Y88.253 E35.39109
G1 X150.432 Y88.623 E35.41296
G1 X151.775 Y90.893 E35.54454
G1 X151.987 Y91.28 E35.56656
G1 X153.185 Y93.632 E35.69825
G1 X153.372 Y94.028 E35.72009
G1 X154.42 Y96.449 E35.85171
G1 X154.582 Y96.859 E35.8737
G1 X155.476 Y99.342 E36.00536
G1 X155.612 Y99.762 E36.02739
G1 X156.347 Y102.294 E36.15893
G1 X156.456 Y102.714 E36.18057
G1 X157.033 Y105.289 E36.31223
G1 X157.116 Y105.727 E36.33447
G1 X157.528 Y108.333 E36.4661
G1 X157.583 Y108.766 E36.48787
G1 X157.832 Y111.394 E36.61957
G1 X157.86 Y111.834 E36.64157
G1 X157.943 Y114.47 E36.77314
G1 X157.943 Y114.91 E36.7951
G1 X157.86 Y117.547 E36.92672
G1 X157.832 Y117.987 E36.94872
G1 X157.583 Y120.615 E37.08042
G1 X157.528 Y121.048 E37.10219
G1 X157.116 Y123.654 E37.23382
G1 X157.033 Y124.091 E37.25601
G1 X156.456 Y126.667 E37.38771
G1 X156.347 Y127.088 E37.40941
G1 X155.612 Y129.62 E37.54095
G1 X155.476 Y130.04 E37.56297
G1 X154.582 Y132.523 E37.69463
G1 X154.42 Y132.932 E37.71658
G1 X153.372 Y135.354 E37.84824
G1 X153.186 Y135.75 E37.87007
G1 X151.989 Y138.101 E38.00169
G1 X151.775 Y138.49 E38.02384
G1 X150.431 Y140.761 E38.15549
G1 X150.196 Y141.131 E38.17736
G1 X148.713 Y143.313 E38.30899
G1 X148.455 Y143.668 E38.33088
G1 X146.838 Y145.753 E38.46252
G1 X146.559 Y146.091 E38.48438
G1 X144.815 Y148.07 E38.61598
G1 X144.514 Y148.39 E38.6379
G1 X142.649 Y150.256 E38.76952
G1 X142.325 Y150.561 E38.79172
G1 X140.345 Y152.305 E38.92336
G1 X140.009 Y152.582 E38.94508
G1 X137.925 Y154.199 E39.07668
G1 X137.568 Y154.459 E39.09872
G1 X135.384 Y155.943 E39.23045
G1 X135.014 Y156.178 E39.25232
G1 X132.744 Y157.521 E39.3839
G1 X132.357 Y157.733 E39.40592
G1 X130.005 Y158.931 E39.53761
G1 X129.609 Y159.118 E39.55945
G1 X127.188 Y160.166 E39.69107
G1 X126.777 Y160.328 E39.71311
G1 X124.293 Y161.222 E39.84482
G1 X123.875 Y161.358 E39.86675
G1 X121.344 Y162.093 E39.99824
G1 X120.919 Y162.202 E40.02013
G1 X118.343 Y162.778 E40.15182
G1 X117.912 Y162.861 E40.17372
G1 X115.306 Y163.274 E40.30535
G1 X114.868 Y163.329 E40.32738
G1 X112.24 Y163.577 E40.45907
G1 X111.802 Y163.605 E40.48097
