;FLAVOR:Marlin
;TIME:15824
;Filament used: 9.68056m
;Layer height: 0.15
;MINX:61.051
;MINY:61.054
;MINZ:0.3
;MAXX:158.948
;MAXY:158.945
;MAXZ:7.05
;Generated with Cura_SteamEngine 5.2.1
M140 S60
M105
M190 S60
M104 S200
M105
M109 S200
M82 ;absolute extrusion mode
G28 ;Home
G1 Z15.0 F2000 ;Move the platform
G92 E0
G92 E0
G1 F1500 E-6.5
;LAYER_COUNT:46
;LAYER:0
M107
M204 S1000
G0 F7500 X75.156 Y75.619 Z0.3
;TYPE:SKIRT
G1 F1500 E0
G1 X76.333 Y74.467 E0.08217
G1 X77.547 Y73.355 E0.1643
G1 X78.805 Y72.278 E0.24692
G1 X80.095 Y71.247 E0.32931
G1 X81.421 Y70.259 E0.41181
G1 X82.56 Y69.465 E0.48108
G1 X83.933 Y68.568 E0.5629
G1 X85.358 Y67.706 E0.64599
G1 X87.025 Y66.777 E0.7412
G1 X88.496 Y66.026 E0.8236
G1 X89.752 Y65.434 E0.89287
G1 X91.5 Y64.682 E0.98781
G1 X93.049 Y64.079 E1.07074
G1 X94.606 Y63.534 E1.15304
G1 X96.189 Y63.039 E1.23578
G1 X97.771 Y62.603 E1.31765
G1 X99.118 Y62.275 E1.38682
G1 X100.997 Y61.885 E1.48256
G1 X102.623 Y61.609 E1.56484
G1 X103.998 Y61.419 E1.63409
G1 X105.907 Y61.222 E1.72984
G1 X107.551 Y61.112 E1.81204
G1 X108.937 Y61.062 E1.88123
G1 X110.589 Y61.054 E1.96365
G1 X112.241 Y61.102 E2.04611
G1 X114.147 Y61.227 E2.1414
G1 X115.53 Y61.364 E2.21074
G1 X117.171 Y61.579 E2.29331
G1 X119.049 Y61.894 E2.38831
G1 X120.683 Y62.229 E2.47153
G1 X122.032 Y62.552 E2.54073
G1 X123.868 Y63.056 E2.63572
G1 X125.194 Y63.468 E2.70499
G1 X127.007 Y64.1 E2.80078
G1 X128.543 Y64.699 E2.88303
G1 X130.06 Y65.35 E2.96539
G1 X131.317 Y65.936 E3.03458
G1 X132.795 Y66.683 E3.1172
G1 X134.237 Y67.473 E3.19923
G1 X135.659 Y68.316 E3.28171
G1 X137.277 Y69.355 E3.37764
G1 X138.618 Y70.289 E3.45917
G1 X139.952 Y71.283 E3.54217
G1 X141.036 Y72.147 E3.61133
G1 X142.292 Y73.213 E3.69352
G1 X143.704 Y74.502 E3.7889
G1 X144.889 Y75.665 E3.87174
G1 X145.847 Y76.667 E3.9409
G1 X147.124 Y78.096 E4.03651
G1 X148.177 Y79.364 E4.11874
G1 X149.189 Y80.67 E4.20117
G1 X150.153 Y82.004 E4.28328
G1 X150.932 Y83.155 E4.35262
G1 X151.815 Y84.553 E4.43511
G1 X152.649 Y85.976 E4.5174
G1 X153.436 Y87.43 E4.59989
G1 X154.172 Y88.907 E4.68222
G1 X154.964 Y90.654 E4.77791
G1 X155.589 Y92.177 E4.86004
G1 X156.076 Y93.476 E4.92926
G1 X156.687 Y95.292 E5.02485
G1 X157.085 Y96.621 E5.09406
G1 X157.574 Y98.477 E5.18982
G1 X157.934 Y100.084 E5.27198
G1 X158.196 Y101.447 E5.34122
G1 X158.457 Y103.076 E5.42353
G1 X158.663 Y104.719 E5.50614
G1 X158.813 Y106.359 E5.5883
G1 X158.918 Y108.274 E5.68399
G1 X158.948 Y109.921 E5.76617
G1 X158.924 Y111.573 E5.8486
G1 X158.86 Y112.958 E5.91777
G1 X158.732 Y114.606 E6.00024
G1 X158.548 Y116.25 E6.08277
G1 X158.283 Y118.05 E6.17354
G1 X158.196 Y118.552 E6.19896
G1 X157.934 Y119.915 E6.2682
G1 X157.509 Y121.788 E6.36402
G1 X157.086 Y123.373 E6.44586
G1 X156.617 Y124.929 E6.52694
G1 X156.216 Y126.126 E6.58992
G1 X155.74 Y127.431 E6.65923
G1 X155.495 Y128.06 E6.6929
G1 X154.856 Y129.595 E6.77586
G1 X154.171 Y131.092 E6.85799
G1 X153.435 Y132.569 E6.94032
G1 X152.665 Y133.994 E7.02113
G1 X152.029 Y135.09 E7.08435
G1 X151.219 Y136.402 E7.16127
G1 X151.029 Y136.697 E7.17878
G1 X150.159 Y137.988 E7.25645
G1 X149.031 Y139.538 E7.35209
G1 X148.179 Y140.632 E7.42127
G1 X147.125 Y141.902 E7.5036
G1 X146.023 Y143.141 E7.58633
G1 X144.7 Y144.523 E7.68178
G1 X143.518 Y145.672 E7.76402
G1 X142.492 Y146.609 E7.83334
G1 X141.243 Y147.681 E7.91546
G1 X139.95 Y148.717 E7.99812
G1 X138.414 Y149.858 E8.09358
G1 X137.272 Y150.648 E8.16286
G1 X135.888 Y151.543 E8.24509
G1 X134.465 Y152.396 E8.32786
G1 X133.033 Y153.192 E8.4096
G1 X131.555 Y153.948 E8.49242
G1 X129.816 Y154.758 E8.58813
G1 X128.302 Y155.398 E8.67013
G1 X127.008 Y155.899 E8.73936
G1 X125.448 Y156.447 E8.82185
G1 X123.867 Y156.943 E8.90452
G1 X122.279 Y157.383 E8.98673
G1 X120.673 Y157.77 E9.06915
G1 X119.062 Y158.102 E9.15121
G1 X117.171 Y158.42 E9.24688
G1 X115.536 Y158.634 E9.32914
G1 X113.885 Y158.795 E9.4119
G1 X112.501 Y158.885 E9.4811
G1 X110.59 Y158.945 E9.57648
G1 X108.938 Y158.937 E9.6589
G1 X107.551 Y158.887 E9.72815
G1 X105.908 Y158.777 E9.8103
G1 X104 Y158.58 E9.906
G1 X102.624 Y158.39 E9.9753
G1 X100.997 Y158.113 E10.05764
G1 X99.387 Y157.785 E10.13961
G1 X97.767 Y157.395 E10.22274
G1 X95.932 Y156.883 E10.31778
G1 X94.362 Y156.383 E10.39999
G1 X92.803 Y155.829 E10.48253
G1 X91.263 Y155.221 E10.56513
G1 X89.75 Y154.564 E10.64743
G1 X88.495 Y153.972 E10.71666
G1 X86.793 Y153.098 E10.81211
G1 X85.579 Y152.422 E10.88143
G1 X84.16 Y151.571 E10.96398
G1 X82.554 Y150.531 E11.05944
G1 X81.201 Y149.581 E11.14192
G1 X79.891 Y148.593 E11.22378
G1 X78.808 Y147.724 E11.29305
G1 X77.545 Y146.641 E11.37606
G1 X76.141 Y145.349 E11.47125
G1 X75.152 Y144.374 E11.54054
G1 X74.018 Y143.186 E11.62247
G1 X72.74 Y141.744 E11.7186
G1 X71.856 Y140.675 E11.78781
G1 X70.847 Y139.377 E11.86983
G1 X69.877 Y138.038 E11.95232
G1 X68.955 Y136.671 E12.03458
G1 X67.943 Y135.043 E12.13022
G1 X67.12 Y133.607 E12.21279
G1 X66.469 Y132.383 E12.28196
G1 X65.741 Y130.905 E12.36415
G1 X64.955 Y129.155 E12.45986
G1 X64.336 Y127.629 E12.54202
G1 X63.766 Y126.075 E12.6246
G1 X63.329 Y124.757 E12.69388
G1 X62.859 Y123.18 E12.77597
G1 X62.441 Y121.579 E12.85853
G1 X62.078 Y119.968 E12.94091
G1 X61.769 Y118.347 E13.02324
G1 X61.515 Y116.716 E13.10559
G1 X61.289 Y114.814 E13.20115
G1 X61.154 Y113.168 E13.28355
G1 X61.075 Y111.524 E13.36566
G1 X61.051 Y110.135 E13.43497
G1 X61.074 Y108.483 E13.5174
G1 X61.153 Y106.832 E13.59986
G1 X61.289 Y105.179 E13.68261
G1 X61.478 Y103.548 E13.76452
G1 X61.724 Y101.912 E13.84706
G1 X62.024 Y100.289 E13.9294
G1 X62.441 Y98.412 E14.02533
G1 X62.79 Y97.068 E14.09461
G1 X63.33 Y95.237 E14.18985
G1 X63.854 Y93.674 E14.27209
G1 X64.335 Y92.373 E14.34129
G1 X65.062 Y90.594 E14.43717
G1 X65.738 Y89.099 E14.51903
G1 X66.468 Y87.616 E14.60149
G1 X67.119 Y86.392 E14.67066
G1 X68.077 Y84.73 E14.76636
G1 X68.81 Y83.552 E14.83558
G1 X69.877 Y81.96 E14.9312
G1 X70.846 Y80.622 E15.01362
G1 X71.695 Y79.524 E15.08286
G1 X72.743 Y78.252 E15.16509
G1 X73.833 Y77.015 E15.24734
G1 X75.156 Y75.619 E15.3433
G0 F7500 X75.436 Y75.904
G1 F1500 X76.426 Y74.93 E15.41258
G1 X77.808 Y73.658 E15.50629
G1 X79.055 Y72.589 E15.58824
G1 X80.137 Y71.72 E15.65747
G1 X81.65 Y70.587 E15.75177
G1 X82.789 Y69.793 E15.82104
G1 X84.151 Y68.903 E15.90222
G1 X85.77 Y67.929 E15.99648
G1 X86.982 Y67.253 E16.06571
G1 X88.442 Y66.499 E16.14769
G1 X89.923 Y65.796 E16.22948
G1 X91.428 Y65.144 E16.31131
G1 X93.182 Y64.456 E16.40531
G1 X94.726 Y63.915 E16.48693
G1 X96.296 Y63.424 E16.569
G1 X97.634 Y63.052 E16.63829
G1 X99.459 Y62.608 E16.73199
G1 X100.818 Y62.326 E16.80124
G1 X102.678 Y62.006 E16.8954
G1 X104.303 Y61.785 E16.97721
G1 X105.683 Y61.642 E17.04643
G1 X107.565 Y61.512 E17.14055
G1 X109.202 Y61.457 E17.22226
G1 X110.59 Y61.454 E17.29151
G1 X112.48 Y61.514 E17.38585
G1 X114.107 Y61.625 E17.46721
G1 X115.743 Y61.791 E17.54925
G1 X117.362 Y62.012 E17.63077
G1 X118.97 Y62.286 E17.71215
G1 X120.332 Y62.561 E17.78147
G1 X121.939 Y62.941 E17.86386
G1 X123.75 Y63.438 E17.95755
G1 X125.316 Y63.929 E18.03943
G1 X126.627 Y64.386 E18.10869
G1 X128.157 Y64.974 E18.19047
G1 X129.665 Y65.612 E18.27216
G1 X131.148 Y66.299 E18.3537
G1 X132.613 Y67.04 E18.43561
G1 X134.261 Y67.948 E18.52948
G1 X135.454 Y68.659 E18.59877
G1 X136.832 Y69.539 E18.68034
G1 X138.189 Y70.474 E18.76255
G1 X139.702 Y71.596 E18.85653
G1 X140.975 Y72.616 E18.93791
G1 X142.222 Y73.684 E19.01982
G1 X143.246 Y74.619 E19.089
G1 X144.6 Y75.941 E19.18341
G1 X145.558 Y76.943 E19.25258
G1 X146.653 Y78.162 E19.33432
G1 X147.705 Y79.416 E19.41599
G1 X148.865 Y80.905 E19.51016
G1 X149.821 Y82.228 E19.59159
G1 X150.738 Y83.591 E19.67355
G1 X151.604 Y84.977 E19.75508
G1 X152.427 Y86.398 E19.83701
G1 X153.198 Y87.84 E19.91859
G1 X153.814 Y89.084 E19.98784
G1 X154.495 Y90.577 E20.06971
G1 X155.214 Y92.317 E20.16364
G1 X155.785 Y93.853 E20.2454
G1 X156.304 Y95.407 E20.32713
G1 X156.769 Y96.973 E20.40863
G1 X157.123 Y98.316 E20.47793
G1 X157.491 Y99.92 E20.56003
G1 X157.803 Y101.522 E20.64145
G1 X158.062 Y103.138 E20.72311
G1 X158.292 Y105.012 E20.8173
G1 X158.415 Y106.394 E20.88652
G1 X158.509 Y108.032 E20.96838
G1 X158.547 Y109.67 E21.05012
G1 X158.524 Y111.555 E21.14417
G1 X158.444 Y113.189 E21.22579
G1 X158.309 Y114.826 E21.30773
G1 X158.119 Y116.448 E21.38921
G1 X157.915 Y117.822 E21.45851
G1 X157.803 Y118.477 E21.49166
G1 X157.491 Y120.079 E21.57309
G1 X157.122 Y121.686 E21.65535
G1 X156.703 Y123.258 E21.73651
G1 X156.305 Y124.589 E21.80582
G1 X155.84 Y125.989 E21.87942
G1 X155.364 Y127.294 E21.94872
G1 X155.18 Y127.77 E21.97418
G1 X154.492 Y129.43 E22.06383
G1 X153.813 Y130.915 E22.1453
G1 X153.197 Y132.159 E22.21455
G1 X152.426 Y133.601 E22.29613
G1 X151.799 Y134.694 E22.359
G1 X150.882 Y136.185 E22.44633
G1 X150.603 Y136.615 E22.4719
G1 X149.676 Y137.979 E22.55418
G1 X148.715 Y139.292 E22.63535
G1 X147.708 Y140.579 E22.71688
G1 X146.65 Y141.84 E22.799
G1 X145.556 Y143.057 E22.88065
G1 X144.421 Y144.237 E22.96233
G1 X143.429 Y145.206 E23.03151
G1 X142.038 Y146.476 E23.12548
G1 X140.788 Y147.538 E23.20732
G1 X139.501 Y148.558 E23.28924
G1 X138.387 Y149.385 E23.35846
G1 X137.044 Y150.319 E23.44008
G1 X135.671 Y151.207 E23.52165
G1 X134.054 Y152.171 E23.61557
G1 X132.84 Y152.842 E23.68478
G1 X131.147 Y153.702 E23.77951
G1 X129.66 Y154.39 E23.86126
G1 X128.158 Y155.025 E23.94261
G1 X126.628 Y155.613 E24.02439
G1 X125.317 Y156.07 E24.09365
G1 X123.748 Y156.561 E24.17567
G1 X121.929 Y157.06 E24.26978
G1 X120.58 Y157.381 E24.33896
G1 X118.731 Y157.757 E24.43309
G1 X117.118 Y158.024 E24.51466
G1 X115.743 Y158.208 E24.58387
G1 X113.859 Y158.395 E24.67833
G1 X112.229 Y158.497 E24.75981
G1 X110.591 Y158.545 E24.84156
G1 X109.203 Y158.542 E24.91081
G1 X107.565 Y158.487 E24.99258
G1 X105.684 Y158.357 E25.08664
G1 X104.304 Y158.214 E25.15586
G1 X102.431 Y157.955 E25.25019
G1 X101.065 Y157.719 E25.31935
G1 X99.468 Y157.393 E25.40067
G1 X97.626 Y156.945 E25.49525
G1 X96.289 Y156.572 E25.5645
G1 X94.495 Y156.006 E25.65835
G1 X93.185 Y155.544 E25.72765
G1 X91.422 Y154.854 E25.82211
G1 X89.921 Y154.202 E25.90375
G1 X88.666 Y153.61 E25.97298
G1 X87.208 Y152.866 E26.05464
G1 X85.554 Y151.945 E26.14909
G1 X84.164 Y151.103 E26.23017
G1 X82.783 Y150.203 E26.31241
G1 X81.441 Y149.261 E26.39421
G1 X80.331 Y148.428 E26.46345
G1 X79.059 Y147.412 E26.54466
G1 X77.806 Y146.338 E26.627
G1 X76.422 Y145.064 E26.72085
G1 X75.264 Y143.917 E26.80216
G1 X74.132 Y142.719 E26.88439
G1 X73.048 Y141.489 E26.96619
G1 X72.164 Y140.42 E27.03539
G1 X71.163 Y139.132 E27.11678
G1 X70.061 Y137.602 E27.21085
G1 X69.287 Y136.448 E27.28017
G1 X68.416 Y135.054 E27.36218
G1 X67.474 Y133.419 E27.45632
G1 X66.711 Y131.976 E27.53775
G1 X65.994 Y130.505 E27.6194
G1 X65.425 Y129.238 E27.68869
G1 X64.801 Y127.721 E27.77052
G1 X64.146 Y125.949 E27.86478
G1 X63.636 Y124.398 E27.94623
G1 X63.175 Y122.822 E28.02815
G1 X62.828 Y121.479 E28.09736
G1 X62.468 Y119.881 E28.17908
G1 X62.12 Y118.028 E28.27314
G1 X61.91 Y116.656 E28.34239
G1 X61.687 Y114.78 E28.43664
G1 X61.553 Y113.148 E28.51834
G1 X61.483 Y111.763 E28.58752
G1 X61.451 Y110.128 E28.66911
G1 X61.482 Y108.239 E28.76336
G1 X61.552 Y106.852 E28.83265
G1 X61.712 Y104.973 E28.92673
G1 X61.909 Y103.344 E29.0086
G1 X62.119 Y101.972 E29.07784
G1 X62.466 Y100.122 E29.17175
G1 X62.767 Y98.767 E29.241
G1 X63.241 Y96.937 E29.33531
G1 X63.633 Y95.606 E29.40453
G1 X64.229 Y93.813 E29.4988
G1 X64.8 Y92.281 E29.58037
G1 X65.426 Y90.758 E29.66252
G1 X65.995 Y89.492 E29.73176
G1 X66.708 Y88.027 E29.81305
G1 X67.473 Y86.58 E29.89471
G1 X68.417 Y84.941 E29.98907
G1 X69.15 Y83.763 E30.05829
G1 X70.201 Y82.194 E30.15251
G1 X71.012 Y81.068 E30.22174
G1 X72.012 Y79.768 E30.30357
G1 X73.051 Y78.507 E30.38508
G1 X74.132 Y77.28 E30.46667
G1 X75.436 Y75.904 E30.56124
G0 F7500 X75.717 Y76.189
G1 F1500 X76.875 Y75.055 E30.6421
G1 X77.896 Y74.115 E30.71134
G1 X79.306 Y72.901 E30.80417
G1 X80.575 Y71.887 E30.88521
G1 X81.686 Y71.055 E30.95446
G1 X83.018 Y70.122 E31.03559
G1 X84.58 Y69.107 E31.12853
G1 X85.965 Y68.279 E31.20903
G1 X87.39 Y67.489 E31.29032
G1 X88.838 Y66.75 E31.37142
G1 X90.312 Y66.06 E31.45262
G1 X91.792 Y65.427 E31.53293
G1 X93.315 Y64.833 E31.61449
G1 X94.624 Y64.371 E31.68374
G1 X96.171 Y63.879 E31.76473
G1 X97.741 Y63.438 E31.84609
G1 X99.307 Y63.053 E31.92654
G1 X100.9 Y62.718 E32.00776
G1 X102.733 Y62.402 E32.10055
G1 X104.345 Y62.183 E32.18172
G1 X105.725 Y62.04 E32.25093
G1 X107.348 Y61.924 E32.33211
G1 X109.203 Y61.857 E32.42472
G1 X110.591 Y61.854 E32.49397
G1 X112.453 Y61.913 E32.58691
G1 X114.068 Y62.023 E32.66767
G1 X115.451 Y62.16 E32.737
G1 X117.064 Y62.372 E32.81817
G1 X118.89 Y62.678 E32.91054
G1 X120.497 Y63.007 E32.99238
G1 X122.068 Y63.387 E33.07301
G1 X123.406 Y63.754 E33.14223
G1 X124.957 Y64.232 E33.2232
G1 X126.718 Y64.846 E33.31625
G1 X128.229 Y65.435 E33.39716
G1 X129.508 Y65.98 E33.46652
G1 X131.196 Y66.767 E33.55943
G1 X132.432 Y67.396 E33.62862
G1 X133.851 Y68.174 E33.70936
G1 X135.25 Y69.003 E33.79049
G1 X136.821 Y70.012 E33.88364
G1 X137.961 Y70.802 E33.95284
G1 X139.258 Y71.759 E34.03325
G1 X140.537 Y72.773 E34.11468
G1 X141.773 Y73.822 E34.19556
G1 X143.145 Y75.074 E34.28823
G1 X144.14 Y76.045 E34.35759
G1 X145.269 Y77.22 E34.43889
G1 X146.355 Y78.429 E34.51996
G1 X147.546 Y79.856 E34.6127
G1 X148.542 Y81.14 E34.69377
G1 X149.357 Y82.262 E34.76295
G1 X150.4 Y83.804 E34.85583
G1 X151.259 Y85.179 E34.93672
G1 X151.958 Y86.379 E35.006
G1 X152.731 Y87.809 E35.0871
G1 X153.455 Y89.262 E35.16809
G1 X154.225 Y90.959 E35.26106
G1 X154.755 Y92.242 E35.33032
G1 X155.327 Y93.757 E35.41111
G1 X155.921 Y95.522 E35.50402
G1 X156.319 Y96.851 E35.57323
G1 X156.736 Y98.418 E35.65413
G1 X157.101 Y100.008 E35.73552
G1 X157.451 Y101.83 E35.82808
G1 X157.667 Y103.201 E35.89732
G1 X157.869 Y104.816 E35.97852
G1 X158.034 Y106.667 E36.07124
G1 X158.11 Y108.054 E36.14054
G1 X158.148 Y109.911 E36.2332
G1 X158.125 Y111.536 E36.31428
G1 X158.061 Y112.921 E36.38346
G1 X157.935 Y114.542 E36.46457
G1 X157.723 Y116.389 E36.55732
G1 X157.495 Y117.915 E36.6343
G1 X157.436 Y118.26 E36.65176
G1 X157.101 Y119.991 E36.73973
G1 X156.735 Y121.584 E36.82127
G1 X156.32 Y123.143 E36.90176
G1 X155.858 Y124.677 E36.98169
G1 X155.531 Y125.661 E37.03342
G1 X154.935 Y127.299 E37.12038
G1 X154.808 Y127.625 E37.13783
G1 X154.128 Y129.264 E37.22636
G1 X153.554 Y130.527 E37.29558
G1 X152.838 Y131.981 E37.37644
G1 X151.972 Y133.594 E37.46777
G1 X151.348 Y134.67 E37.52983
G1 X150.62 Y135.851 E37.59904
G1 X150.272 Y136.391 E37.63109
G1 X149.496 Y137.54 E37.70027
G1 X148.4 Y139.046 E37.79319
G1 X147.548 Y140.14 E37.86237
G1 X146.352 Y141.573 E37.95549
G1 X145.267 Y142.78 E38.03646
G1 X144.307 Y143.783 E38.10573
G1 X142.978 Y145.081 E38.19841
G1 X141.778 Y146.172 E38.27932
G1 X140.539 Y147.225 E38.36045
G1 X139.263 Y148.237 E38.4417
G1 X138.149 Y149.064 E38.51092
G1 X136.816 Y149.99 E38.59189
G1 X135.455 Y150.87 E38.67275
G1 X133.86 Y151.82 E38.76537
G1 X132.431 Y152.606 E38.84673
G1 X131.193 Y153.235 E38.91601
G1 X129.503 Y154.022 E39.00902
G1 X128.013 Y154.652 E39.08973
G1 X126.496 Y155.235 E39.17081
G1 X124.957 Y155.767 E39.25205
G1 X123.406 Y156.245 E39.33302
G1 X122.068 Y156.612 E39.40224
G1 X120.487 Y156.992 E39.48336
G1 X118.665 Y157.362 E39.57612
G1 X117.064 Y157.627 E39.65708
G1 X115.689 Y157.811 E39.72629
G1 X113.833 Y157.996 E39.81934
G1 X112.217 Y158.097 E39.90012
G1 X110.592 Y158.145 E39.98123
G1 X109.204 Y158.142 E40.05048
G1 X107.348 Y158.075 E40.14313
G1 X105.726 Y157.959 E40.22426
G1 X104.346 Y157.816 E40.29348
G1 X102.499 Y157.561 E40.3865
G1 X101.133 Y157.325 E40.45566
G1 X99.305 Y156.947 E40.54879
G1 X97.734 Y156.56 E40.62951
G1 X96.397 Y156.187 E40.69876
G1 X94.85 Y155.703 E40.77963
G1 X93.095 Y155.084 E40.87247
G1 X91.802 Y154.578 E40.94175
G1 X90.305 Y153.936 E41.02301
G1 X88.837 Y153.248 E41.10389
G1 X87.391 Y152.51 E41.18489
G1 X85.969 Y151.723 E41.26597
G1 X84.381 Y150.767 E41.35845
G1 X83.012 Y149.875 E41.43996
G1 X81.681 Y148.941 E41.52109
G1 X80.571 Y148.108 E41.59032
G1 X79.309 Y147.1 E41.6709
G1 X78.067 Y146.035 E41.75253
G1 X76.878 Y144.946 E41.83297
G1 X75.554 Y143.641 E41.92572
G1 X74.432 Y142.454 E42.0072
G1 X73.357 Y141.234 E42.08833
