;FLAVOR:Marlin
;TIME:2930
;Filament used: 2.29794m
;Layer height: 0.2
;MINX:6.8
;MINY:6.8
;MINZ:0.3
;MAXX:213.2
;MAXY:213.2
;MAXZ:1.1
;Generated with Cura_SteamEngine 5.2.1
M140 S60
M105
M190 S60
M104 S200
M105
M109 S200
M82 ;absolute extrusion mode
G28 ;Home
G1 Z15.0 F2000 ;Move the platform
G92 E0
G92 E0
G1 F1500 E-6.5
;LAYER_COUNT:5
;LAYER:0
M107
M204 S1000
G0 F7500 X7.789 Y7.704 Z0.3
;TYPE:SKIRT
G1 F1500 E0
G1 X8.18 Y7.383 E0.02524
G1 X8.617 Y7.128 E0.05048
G1 X9.088 Y6.944 E0.07571
G1 X9.582 Y6.838 E0.10092
G1 X9.919 Y6.81 E0.11779
G1 X10.24 Y6.801 E0.13381
G1 X209.339 Y6.8 E10.0669
G1 X210.037 Y6.81 E10.10172
G1 X210.54 Y6.857 E10.12693
G1 X211.03 Y6.983 E10.15217
G1 X211.494 Y7.185 E10.17742
G1 X211.92 Y7.457 E10.20263
G1 X212.298 Y7.792 E10.22783
G1 X212.618 Y8.183 E10.25304
G1 X212.873 Y8.62 E10.27828
G1 X213.056 Y9.091 E10.30349
G1 X213.163 Y9.585 E10.32871
G1 X213.19 Y9.92 E10.34548
G1 X213.199 Y10.24 E10.36145
G1 X213.2 Y209.304 E20.29279
G1 X213.191 Y210.031 E20.32906
G1 X213.145 Y210.534 E20.35426
G1 X213.02 Y211.024 E20.37949
G1 X212.819 Y211.488 E20.40472
G1 X212.548 Y211.915 E20.42995
G1 X212.213 Y212.294 E20.45519
G1 X211.823 Y212.615 E20.48039
G1 X211.387 Y212.871 E20.50561
G1 X210.916 Y213.054 E20.53082
G1 X210.422 Y213.162 E20.55605
G1 X210.081 Y213.19 E20.57312
G1 X209.76 Y213.199 E20.58914
G1 X10.666 Y213.2 E30.52198
G1 X9.968 Y213.191 E30.55681
G1 X9.464 Y213.144 E30.58206
G1 X8.974 Y213.019 E30.60729
G1 X8.51 Y212.818 E30.63252
G1 X8.084 Y212.547 E30.65771
G1 X7.705 Y212.212 E30.68294
G1 X7.384 Y211.821 E30.70818
G1 X7.129 Y211.385 E30.73338
G1 X6.945 Y210.914 E30.75861
G1 X6.838 Y210.42 E30.78383
G1 X6.81 Y210.077 E30.80099
G1 X6.801 Y209.744 E30.81761
G1 X6.8 Y10.631 E40.7514
G1 X6.809 Y9.966 E40.78458
G1 X6.856 Y9.462 E40.80984
G1 X6.982 Y8.973 E40.83503
G1 X7.183 Y8.509 E40.86026
G1 X7.454 Y8.082 E40.88549
G1 X7.789 Y7.704 E40.91069
G1 F1500 E34.41069
;MESH:A8V2-testlevel.stl
G0 F7500 X10.414 Y9.335
G0 X10.414 Y10.414
G0 X28.228 Y12.772
G0 X28.4 Y28.4
;TYPE:WALL-INNER
G1 F1500 E40.91069
G1 X28.4 Y12.6 E41.69895
G1 X12.6 Y12.6 E42.48722
G1 X12.6 Y28.4 E43.27548
G1 X28.4 Y28.4 E44.06375
G0 F7500 X28.8 Y28.8
G1 F1500 X28.8 Y12.2 E44.89192
G1 X12.2 Y12.2 E45.7201
G1 X12.2 Y28.8 E46.54828
G1 X28.8 Y28.8 E47.37646
G0 F7500 X29.2 Y29.2
G1 F1500 X29.2 Y11.8 E48.24455
G1 X11.8 Y11.8 E49.11264
G1 X11.8 Y29.2 E49.98073
G1 X29.2 Y29.2 E50.84881
G0 F7500 X29.6 Y29.6
G1 F1500 X29.6 Y11.4 E51.75682
G1 X11.4 Y11.4 E52.66482
G1 X11.4 Y29.6 E53.57282
G1 X29.6 Y29.6 E54.48082
G0 F7500 X30 Y30
G1 F1500 X30 Y11 E55.42874
G1 X11 Y11 E56.37665
G1 X11 Y30 E57.32456
G1 X30 Y30 E58.27248
G0 F7500 X30.4 Y30.4
G1 F1500 X30.4 Y11 E59.24035
G1 X30.736 Y10.6 E59.26641
G1 X10.6 Y10.6 E60.271
G1 X10.6 Y30.8 E61.27878
G1 X11 Y30.4 E61.307
G1 X30.4 Y30.4 E62.27487
G1 F1500 E55.77487
G0 F7500 X30.13 Y30.13
G0 X30.572 Y10.572
G0 X90.417 Y10.572
G0 X98.588 Y26.887
G0 X108.7 Y28.35
G1 F1500 E62.27487
G1 X109.568 Y28.394 E62.31823
G1 X110.432 Y28.394 E62.36134
G1 X111.298 Y28.35 E62.4046
G1 X112.162 Y28.264 E62.44792
G1 X113.018 Y28.134 E62.49111
G1 X113.869 Y27.962 E62.53443
G1 X114.702 Y27.75 E62.57731
G1 X115.541 Y27.494 E62.62107
G1 X116.353 Y27.196 E62.66423
G1 X117.156 Y26.859 E62.70767
G1 X117.938 Y26.481 E62.75101
G1 X118.698 Y26.069 E62.79414
G1 X119.436 Y25.616 E62.83734
G1 X120.156 Y25.126 E62.88079
G1 X120.846 Y24.604 E62.92395
G1 X121.515 Y24.044 E62.96748
G1 X122.149 Y23.455 E63.01065
G1 X122.754 Y22.834 E63.05391
G1 X123.33 Y22.183 E63.09727
G1 X123.868 Y21.507 E63.14038
G1 X124.375 Y20.801 E63.18374
G1 X124.845 Y20.074 E63.22693
G1 X125.278 Y19.322 E63.27022
G1 X125.676 Y18.547 E63.31369
G1 X126.031 Y17.762 E63.35667
G1 X126.35 Y16.949 E63.40024
G1 X126.63 Y16.118 E63.44399
G1 X126.859 Y15.296 E63.48656
G1 X127.053 Y14.446 E63.53006
G1 X127.204 Y13.592 E63.57333
G1 X127.312 Y12.729 E63.61672
G1 X127.322 Y12.601 E63.62312
G1 X92.67 Y12.6 E65.35192
G1 X92.799 Y13.612 E65.40282
G1 X92.947 Y14.446 E65.44508
G1 X93.137 Y15.282 E65.48785
G1 X93.375 Y16.132 E65.53188
G1 X93.65 Y16.955 E65.57518
G1 X93.966 Y17.755 E65.61809
G1 X94.324 Y18.548 E65.6615
G1 X94.722 Y19.323 E65.70496
G1 X95.153 Y20.072 E65.74807
G1 X95.625 Y20.801 E65.7914
G1 X96.13 Y21.505 E65.83463
G1 X96.67 Y22.183 E65.87787
G1 X97.244 Y22.832 E65.9211
G1 X97.852 Y23.455 E65.96453
G1 X98.488 Y24.047 E66.00788
G1 X99.15 Y24.601 E66.05094
G1 X99.846 Y25.127 E66.09447
G1 X100.561 Y25.616 E66.13768
G1 X101.299 Y26.067 E66.18083
G1 X102.063 Y26.482 E66.22421
G1 X102.845 Y26.859 E66.26752
G1 X103.646 Y27.196 E66.31087
G1 X104.471 Y27.498 E66.35471
G1 X105.284 Y27.746 E66.39711
G1 X106.132 Y27.962 E66.44077
G1 X106.98 Y28.134 E66.48394
G1 X107.838 Y28.264 E66.52723
G1 X108.7 Y28.35 E66.57045
G0 F7500 X108.67 Y28.749
G1 F1500 X109.558 Y28.794 E66.61481
G1 X110.442 Y28.794 E66.65891
G1 X111.328 Y28.749 E66.70317
G1 X112.212 Y28.661 E66.74749
G1 X113.088 Y28.528 E66.7917
G1 X113.958 Y28.352 E66.83598
G1 X114.809 Y28.135 E66.8798
G1 X115.668 Y27.873 E66.9246
G1 X116.499 Y27.569 E66.96875
G1 X117.32 Y27.223 E67.0132
G1 X118.121 Y26.837 E67.05756
G1 X118.898 Y26.416 E67.10165
G1 X119.654 Y25.952 E67.1459
G1 X120.389 Y25.451 E67.19028
G1 X121.095 Y24.917 E67.23444
G1 X121.779 Y24.344 E67.27896
G1 X122.428 Y23.742 E67.32312
G1 X123.048 Y23.106 E67.36743
G1 X123.636 Y22.44 E67.41176
G1 X124.187 Y21.749 E67.45585
G1 X124.706 Y21.026 E67.50025
G1 X125.186 Y20.282 E67.54442
G1 X125.63 Y19.513 E67.58873
G1 X126.036 Y18.721 E67.63313
G1 X126.399 Y17.918 E67.67709
G1 X126.726 Y17.086 E67.72169
G1 X127.013 Y16.235 E67.7665
G1 X127.247 Y15.395 E67.81
G1 X127.445 Y14.525 E67.85452
G1 X127.599 Y13.652 E67.89874
G1 X127.711 Y12.759 E67.94364
G1 X127.753 Y12.201 E67.97156
G1 X92.246 Y12.2 E69.74301
G1 X92.291 Y12.785 E69.77228
G1 X92.4 Y13.651 E69.81583
G1 X92.554 Y14.526 E69.86016
G1 X92.749 Y15.38 E69.90386
G1 X92.993 Y16.249 E69.94889
G1 X93.274 Y17.092 E69.99322
G1 X93.598 Y17.91 E70.03712
G1 X93.964 Y18.722 E70.08155
G1 X94.371 Y19.514 E70.12598
G1 X94.812 Y20.281 E70.17012
G1 X95.294 Y21.026 E70.21439
G1 X95.811 Y21.747 E70.25865
G1 X96.364 Y22.44 E70.30288
G1 X96.951 Y23.104 E70.3471
G1 X97.572 Y23.742 E70.39152
G1 X98.224 Y24.348 E70.43593
G1 X98.901 Y24.914 E70.47995
G1 X99.612 Y25.452 E70.52443
G1 X100.344 Y25.952 E70.56866
G1 X101.099 Y26.413 E70.61279
G1 X101.88 Y26.838 E70.65715
G1 X102.681 Y27.224 E70.70151
G1 X103.499 Y27.569 E70.7458
G1 X104.344 Y27.877 E70.79067
G1 X105.176 Y28.131 E70.83407
G1 X106.042 Y28.352 E70.87866
G1 X106.911 Y28.528 E70.9229
G1 X107.788 Y28.661 E70.96715
G1 X108.67 Y28.749 E71.01137
G0 F7500 X108.64 Y29.148
G1 F1500 X109.548 Y29.194 E71.05673
G1 X110.452 Y29.194 E71.10183
G1 X111.358 Y29.148 E71.14709
G1 X112.261 Y29.058 E71.19237
G1 X113.157 Y28.922 E71.23758
G1 X114.047 Y28.742 E71.28288
G1 X114.917 Y28.521 E71.32766
G1 X115.796 Y28.252 E71.37352
G1 X116.645 Y27.941 E71.41863
G1 X117.484 Y27.588 E71.46405
G1 X118.303 Y27.194 E71.50939
G1 X119.098 Y26.762 E71.55453
G1 X119.871 Y26.288 E71.59977
G1 X120.623 Y25.776 E71.64515
G1 X121.344 Y25.23 E71.69028
G1 X122.044 Y24.645 E71.73579
G1 X122.708 Y24.028 E71.78101
G1 X123.341 Y23.379 E71.82624
G1 X123.942 Y22.698 E71.87155
G1 X124.507 Y21.99 E71.91674
G1 X125.036 Y21.252 E71.96205
G1 X125.528 Y20.491 E72.00726
G1 X125.981 Y19.704 E72.05256
G1 X126.396 Y18.895 E72.09792
G1 X126.768 Y18.074 E72.14289
G1 X127.102 Y17.224 E72.18845
G1 X127.395 Y16.353 E72.2343
G1 X127.635 Y15.493 E72.27884
G1 X127.837 Y14.605 E72.32428
G1 X127.995 Y13.712 E72.36952
G1 X128.11 Y12.789 E72.41593
G1 X128.176 Y11.906 E72.4601
G1 X128.178 Y11.801 E72.46534
G1 X91.821 Y11.8 E74.2792
G1 X91.891 Y12.812 E74.32981
G1 X92.004 Y13.711 E74.37501
G1 X92.162 Y14.605 E74.42031
G1 X92.345 Y15.41 E74.46149
G1 X92.61 Y16.366 E74.51099
G1 X92.898 Y17.229 E74.55638
G1 X93.229 Y18.066 E74.60128
G1 X93.604 Y18.895 E74.64668
G1 X94.019 Y19.705 E74.69208
G1 X94.47 Y20.489 E74.73721
G1 X94.964 Y21.252 E74.78255
G1 X95.492 Y21.988 E74.82774
G1 X96.058 Y22.698 E74.87304
G1 X96.657 Y23.377 E74.91822
G1 X97.292 Y24.028 E74.96359
G1 X97.959 Y24.648 E75.00902
G1 X98.652 Y25.227 E75.05407
G1 X99.378 Y25.777 E75.09951
G1 X100.127 Y26.288 E75.14475
G1 X100.899 Y26.76 E75.18989
G1 X101.698 Y27.194 E75.23526
G1 X102.516 Y27.588 E75.28055
G1 X103.353 Y27.941 E75.32587
G1 X104.217 Y28.257 E75.37177
G1 X105.068 Y28.516 E75.41615
G1 X105.953 Y28.742 E75.46172
G1 X106.841 Y28.922 E75.50692
G1 X107.739 Y29.058 E75.55224
G1 X108.64 Y29.148 E75.59741
G0 F7500 X108.61 Y29.547
G1 F1500 X109.538 Y29.594 E75.64377
G1 X110.462 Y29.594 E75.68987
G1 X111.388 Y29.547 E75.73613
G1 X112.311 Y29.455 E75.7824
G1 X113.227 Y29.316 E75.82862
G1 X114.137 Y29.132 E75.87494
G1 X115.025 Y28.906 E75.92066
G1 X115.923 Y28.632 E75.9675
G1 X116.792 Y28.313 E76.01368
G1 X117.649 Y27.953 E76.06006
G1 X118.485 Y27.55 E76.10636
G1 X119.298 Y27.109 E76.1525
G1 X120.088 Y26.624 E76.19875
G1 X120.856 Y26.101 E76.24511
G1 X121.593 Y25.543 E76.29123
G1 X122.308 Y24.945 E76.33773
G1 X122.987 Y24.314 E76.38397
G1 X123.634 Y23.651 E76.43019
G1 X124.249 Y22.955 E76.47653
G1 X124.826 Y22.231 E76.52272
G1 X125.367 Y21.477 E76.56902
G1 X125.869 Y20.699 E76.61521
G1 X126.333 Y19.896 E76.66148
G1 X126.757 Y19.069 E76.70784
G1 X127.136 Y18.229 E76.75382
G1 X127.478 Y17.361 E76.80036
G1 X127.778 Y16.47 E76.84727
G1 X128.023 Y15.591 E76.89279
G1 X128.23 Y14.684 E76.93921
G1 X128.391 Y13.772 E76.98541
G1 X128.507 Y12.852 E77.03167
G1 X128.576 Y11.916 E77.0785
G1 X128.588 Y11.401 E77.1042
G1 X91.412 Y11.401 E78.95892
G1 X91.425 Y11.941 E78.98586
G1 X91.493 Y12.852 E79.03144
G1 X91.609 Y13.77 E79.0776
G1 X91.77 Y14.685 E79.12396
G1 X91.974 Y15.577 E79.16961
G1 X92.228 Y16.484 E79.2166
G1 X92.522 Y17.366 E79.26298
G1 X92.86 Y18.222 E79.3089
G1 X93.243 Y19.069 E79.35527
G1 X93.668 Y19.896 E79.40166
G1 X94.129 Y20.698 E79.44781
G1 X94.633 Y21.477 E79.4941
G1 X95.173 Y22.229 E79.54029
G1 X95.751 Y22.955 E79.58659
G1 X96.364 Y23.649 E79.63278
G1 X97.013 Y24.314 E79.67914
G1 X97.695 Y24.948 E79.7256
G1 X98.403 Y25.54 E79.77164
G1 X99.144 Y26.102 E79.81804
G1 X99.909 Y26.624 E79.86424
G1 X100.699 Y27.106 E79.91041
G1 X101.515 Y27.55 E79.95676
G1 X102.352 Y27.953 E80.00311
G1 X103.206 Y28.313 E80.04934
G1 X104.089 Y28.636 E80.09625
G1 X104.961 Y28.902 E80.14174
G1 X105.864 Y29.132 E80.18822
G1 X106.771 Y29.316 E80.2344
G1 X107.689 Y29.455 E80.28072
G1 X108.61 Y29.547 E80.3269
G0 F7500 X108.58 Y29.946
G1 F1500 X109.528 Y29.994 E80.37425
G1 X110.472 Y29.994 E80.42135
G1 X111.418 Y29.946 E80.46861
G1 X112.361 Y29.852 E80.51589
G1 X113.296 Y29.71 E80.56307
G1 X114.226 Y29.522 E80.6104
G1 X115.133 Y29.291 E80.6571
G1 X116.05 Y29.011 E80.70493
G1 X116.938 Y28.686 E80.75211
G1 X117.813 Y28.318 E80.79947
G1 X118.668 Y27.906 E80.84682
G1 X119.498 Y27.455 E80.89394
G1 X120.305 Y26.96 E80.94118
G1 X121.09 Y26.426 E80.98854
G1 X121.843 Y25.856 E81.03566
G1 X122.573 Y25.245 E81.08315
G1 X123.267 Y24.601 E81.13039
G1 X123.927 Y23.923 E81.17759
G1 X124.555 Y23.212 E81.22492
G1 X125.145 Y22.473 E81.2721
G1 X125.698 Y21.702 E81.31943
G1 X126.211 Y20.908 E81.3666
G1 X126.684 Y20.087 E81.41387
G1 X127.117 Y19.243 E81.46119
G1 X127.505 Y18.385 E81.50817
G1 X127.854 Y17.498 E81.55573
G1 X128.16 Y16.588 E81.60363
G1 X128.411 Y15.69 E81.65014
G1 X128.622 Y14.764 E81.69753
G1 X128.787 Y13.832 E81.74475
G1 X128.905 Y12.891 E81.79206
G1 X128.976 Y11.925 E81.84039
G1 X128.998 Y11.001 E81.8865
G1 X91.002 Y11.001 E83.78213
G1 X91.024 Y11.948 E83.82938
G1 X91.095 Y12.891 E83.87656
G1 X91.213 Y13.83 E83.92378
G1 X91.378 Y14.764 E83.9711
G1 X91.586 Y15.676 E84.01777
G1 X91.845 Y16.601 E84.06569
G1 X92.146 Y17.503 E84.11313
G1 X92.492 Y18.378 E84.16007
G1 X92.883 Y19.243 E84.20743
G1 X93.316 Y20.087 E84.25476
G1 X93.787 Y20.906 E84.30189
G1 X94.302 Y21.702 E84.34919
G1 X94.853 Y22.471 E84.39639
G1 X95.445 Y23.212 E84.44371
G1 X96.071 Y23.921 E84.49089
G1 X96.733 Y24.601 E84.53824
G1 X97.43 Y25.248 E84.58569
G1 X98.154 Y25.853 E84.63276
G1 X98.911 Y26.426 E84.68012
G1 X99.692 Y26.96 E84.72733
G1 X100.499 Y27.453 E84.77451
G1 X101.333 Y27.906 E84.82186
G1 X102.187 Y28.318 E84.86916
G1 X103.06 Y28.686 E84.91643
G1 X103.962 Y29.016 E84.96435
G1 X104.853 Y29.287 E85.01081
G1 X105.775 Y29.522 E85.05828
G1 X106.702 Y29.71 E85.10547
G1 X107.639 Y29.852 E85.15275
G1 X108.58 Y29.946 E85.19993
G0 F7500 X108.55 Y30.345
G1 F1500 X109.518 Y30.394 E85.24828
G1 X110.482 Y30.394 E85.29638
G1 X111.448 Y30.345 E85.34463
G1 X112.411 Y30.249 E85.39292
G1 X113.366 Y30.104 E85.44111
G1 X114.315 Y29.912 E85.48941
G1 X115.241 Y29.677 E85.53708
G1 X116.178 Y29.39 E85.58597
G1 X117.085 Y29.058 E85.63415
G1 X117.978 Y28.682 E85.68249
G1 X118.85 Y28.262 E85.73078
G1 X119.698 Y27.802 E85.77891
G1 X120.523 Y27.296 E85.8272
G1 X121.323 Y26.751 E85.87549
G1 X122.092 Y26.169 E85.9236
G1 X122.838 Y25.545 E85.97213
G1 X123.546 Y24.887 E86.02035
G1 X124.221 Y24.195 E86.06858
G1 X124.862 Y23.47 E86.11686
G1 X125.464 Y22.714 E86.16507
G1 X126.028 Y21.928 E86.21333
G1 X126.552 Y21.117 E86.26151
G1 X127.035 Y20.278 E86.3098
G1 X127.478 Y19.417 E86.35811
G1 X127.874 Y18.541 E86.40607
G1 X128.23 Y17.635 E86.45464
G1 X128.543 Y16.705 E86.50359
G1 X128.799 Y15.788 E86.55109
G1 X129.014 Y14.843 E86.59944
G1 X129.183 Y13.892 E86.64763
G1 X129.303 Y12.931 E86.69595
G1 X129.375 Y11.968 E86.74413
G1 X129.399 Y10.985 E86.79318
G1 X129.731 Y10.6 E86.81855
G1 X90.207 Y10.601 E88.79041
G1 X90.601 Y10.985 E88.81786
G1 X90.623 Y11.935 E88.86527
G1 X90.697 Y12.931 E88.91509
G1 X90.817 Y13.89 E88.96331
G1 X90.986 Y14.843 E89.0116
G1 X91.198 Y15.774 E89.05923
G1 X91.462 Y16.718 E89.10814
G1 X91.77 Y17.64 E89.15664
G1 X92.123 Y18.534 E89.20459
G1 X92.522 Y19.417 E89.25293
G1 X92.965 Y20.279 E89.30128
G1 X93.446 Y21.115 E89.3494
G1 X93.972 Y21.928 E89.39771
G1 X94.534 Y22.712 E89.44584
G1 X95.138 Y23.47 E89.49419
G1 X95.777 Y24.193 E89.54233
G1 X96.454 Y24.887 E89.5907
G1 X97.165 Y25.548 E89.63913
G1 X97.904 Y26.166 E89.68719
G1 X98.677 Y26.751 E89.73556
G1 X99.475 Y27.296 E89.78377
G1 X100.299 Y27.8 E89.83196
G1 X101.15 Y28.262 E89.88027
G1 X102.022 Y28.682 E89.92856
G1 X102.913 Y29.058 E89.9768
G1 X103.835 Y29.395 E90.02578
G1 X104.745 Y29.672 E90.07324
G1 X105.685 Y29.912 E90.12164
G1 X106.632 Y30.104 E90.16985
G1 X107.589 Y30.249 E90.21814
G1 X108.55 Y30.345 E90.26632
G1 F1500 E83.76632
G0 F7500 X108.57 Y30.047
G0 X124.332 Y24.311
G0 X129.583 Y10.572
G0 X189.428 Y10.572
G0 X191.6 Y28.4
G1 F1500 E90.26632
G1 X207.4 Y28.4 E91.05458
G1 X207.4 Y20.5 E91.44872
G1 X207.4 Y12.6 E91.84285
G1 X191.6 Y12.6 E92.63111
G1 X191.6 Y28.4 E93.41938
G0 F7500 X191.2 Y28.8
G1 F1500 X207.8 Y28.8 E94.24756
G1 X207.8 Y20.5 E94.66165
G1 X207.8 Y12.2 E95.07573
G1 X191.2 Y12.2 E95.90391
G1 X191.2 Y28.8 E96.73209
G0 F7500 X190.8 Y29.2
G1 F1500 X208.2 Y29.2 E97.60018
G1 X208.2 Y20.5 E98.03422
G1 X208.2 Y11.8 E98.46827
G1 X190.8 Y11.8 E99.33636
G1 X190.8 Y29.2 E100.20445
G0 F7500 X190.4 Y29.6
G1 F1500 X208.6 Y29.6 E101.11245
G1 X208.6 Y20.5 E101.56645
G1 X208.6 Y11.4 E102.02045
G1 X190.4 Y11.4 E102.92845
G1 X190.4 Y29.6 E103.83645
G0 F7500 X190 Y30
G1 F1500 X209 Y30 E104.78437
G1 X209 Y20.5 E105.25832
G1 X209 Y11 E105.73228
G1 X190 Y11 E106.68019
G1 X190 Y30 E107.62811
G0 F7500 X189.6 Y30.4
G1 F1500 X209 Y30.4 E108.59598
G1 X209.4 Y30.8 E108.6242
G1 X209.4 Y20.5 E109.13807
G1 X209.4 Y10.6 E109.63198
G1 X189.2 Y10.6 E110.63977
G1 X189.6 Y11 E110.66799
G1 X189.6 Y30.4 E111.63586
G1 F1500 E105.13586
G0 F7500 X189.87 Y30.13
G0 X209.428 Y30.572
G0 X209.428 Y90.417
G0 X194.693 Y96.654
G0 X191.708 Y106.748
G0 X191.441 Y108.884
G0 X191.441 Y111.114
G0 X191.706 Y113.246
G0 X192.317 Y115.604
G0 X193.262 Y117.865
G0 X194.19 Y119.502
G0 X196.543 Y122.147
G1 F1500 E111.63586
G1 X197.165 Y122.754 E111.67922
G1 X197.815 Y123.327 E111.72245
G1 X198.493 Y123.868 E111.76572
G1 X199.197 Y124.373 E111.80895
G1 X199.927 Y124.845 E111.85232
G1 X200.678 Y125.278 E111.89556
G1 X201.453 Y125.676 E111.93903
G1 X202.238 Y126.031 E111.98201
G1 X203.05 Y126.351 E112.02556
G1 X203.883 Y126.63 E112.06938
